!!!OTL: Das vierte Gebot ( Der Teufel als Freier ) Nun hoeret an, ihr Elteren
!!!ARE: Europa, Mitteleuropa, Lothringen, Metz ( St. Vinzent )
!!!SCT: D0021
!!!YEM: Copyright 1995, estate of Helmut Schaffrath.
**kern
*ICvox
*Ivox
!! Mixed meters:  4/4; 2/4
*M2/4
*k[f#c#]
*D:
{4f#
=1
4f#
4e
=2
*M4/4
2.d
8d
8e
=3
*M2/4
4f#
4g
=4
*M4/4
2.a}
{4f#
=5
*M2/4
4g
4a
=6
*M4/4
2b
4b
4a
=7
*M2/4
2g
=8
*M4/4
2.f#}
{4a
=9
*M2/4
4a
4f#
=10
*M4/4
2.b
4a
=11
*M2/4
4g
4b
=12
*M4/4
2.a}
{4a
=13
*M2/4
4b
8a
8a
=14
*M4/4
2a
4g
4g
=15
*M2/4
4g
8e
8d
=16
*M4/4
2.e}
{4a
=17
*M2/4
8b
8b
4cc#
=18
*M4/4
2dd
2a
=19
*M2/4
2e
=20
2d
4r}
==
!!!AGN: Zeitungs - Lied
!! Verzierung; Inzipit = Variante
!!!ONB: ESAC (Essen Associative Code) Database: DVA
!!!AMT: irregular
!!!AIN: vox
!!!EED: Helmut Schaffrath
!!!EEV: 1.0
*-
